assets/icons/copy.svg

<svg width="15" height="16" viewBox="0 0 15 16" fill="none" xmlns="http://www.w3.org/2000/svg">
<path d="M12.2173 3.18071H11.8686V3.00569C11.8686 1.34836 10.6197 0 9.08583 0H2.78274C1.24888 0 0 1.34836 0 3.00569V9.8136C0 11.4709 1.24888 12.8193 2.78274 12.8193H3.13143V12.9943C3.13143 14.6516 4.38031 16 5.91417 16H12.2173C13.7511 16 15 14.6516 15 12.9943V6.1864C15 4.52908 13.7511 3.18071 12.2173 3.18071ZM3.13143 6.1864V11.3941H2.78274C1.97642 11.3941 1.31929 10.6851 1.31929 9.8136V3.00569C1.31929 2.13417 1.97642 1.42337 2.78274 1.42337H9.08583C9.89383 1.42337 10.5493 2.13238 10.5493 3.00569V3.18071H5.91417C4.38031 3.18071 3.13143 4.52908 3.13143 6.1864ZM13.6807 12.9943C13.6807 13.8658 13.0236 14.5748 12.2173 14.5748H5.91417C5.10617 14.5748 4.45072 13.8658 4.45072 12.9943V6.1864C4.45072 5.31488 5.10784 4.60409 5.91417 4.60409H12.2173C13.0253 4.60409 13.6807 5.31309 13.6807 6.1864V12.9943ZM11.7026 8.87778H9.72452V6.74182C9.72452 6.35071 9.4278 6.02924 9.06571 6.02924C8.70362 6.02924 8.40691 6.34892 8.40691 6.74182V8.87778H6.42881C6.06672 8.87778 5.77 9.19924 5.77 9.59036C5.77 9.98147 6.06672 10.3029 6.42881 10.3029H8.40691V12.4389C8.40691 12.83 8.70362 13.1515 9.06571 13.1515C9.4278 13.1515 9.72452 12.8318 9.72452 12.4389V10.3011H11.7026C12.0647 10.3011 12.3614 9.98147 12.3614 9.58857C12.3631 9.19745 12.0664 8.87778 11.7026 8.87778Z" fill="#333333"/>
</svg>

<svg xmlns="http://www.w3.org/2000/svg" width="15" height="16" fill="none" viewBox="0 0 15 16" data-c="1"><path fill="#333" d="M12.217 3.18h-.348v-.174C11.869 1.348 10.619 0 9.086 0H2.783C1.249 0 0 1.348 0 3.006v6.808c0 1.657 1.249 3.005 2.783 3.005h.348v.175c0 1.658 1.25 3.006 2.783 3.006h6.303C13.751 16 15 14.652 15 12.994V6.186c0-1.657-1.249-3.005-2.783-3.005M3.131 6.187v5.208h-.348c-.807 0-1.464-.709-1.464-1.58V3.006c0-.872.657-1.583 1.464-1.583h6.303c.808 0 1.463.71 1.463 1.583v.175H5.914c-1.534 0-2.783 1.348-2.783 3.005m10.55 6.808c0 .872-.657 1.58-1.464 1.58H5.914c-.808 0-1.463-.708-1.463-1.58V6.186c0-.871.657-1.582 1.463-1.582h6.303c.808 0 1.464.71 1.464 1.582zm-1.978-4.116H9.725V6.742c0-.391-.297-.713-.66-.713-.361 0-.658.32-.658.713v2.136H6.429c-.362 0-.659.321-.659.712s.297.713.659.713h1.978v2.136c0 .391.297.713.659.713s.659-.32.659-.713V10.3h1.978c.362 0 .658-.32.658-.712.002-.392-.295-.711-.658-.711"/></svg>
